images_elementary_svg/cmd/32/tr/italic.svg

<svg height="32" width="32" xmlns="http://www.w3.org/2000/svg" xmlns:xlink="http://www.w3.org/1999/xlink"><radialGradient id="a" cx="9.853718" cy="15.261165" gradientTransform="matrix(-1.863628 -.00000004 .00000006 -2.5413115 30.043985 50.079055)" gradientUnits="userSpaceOnUse" r="4.455698"><stop offset="0" stop-color="#737373"/><stop offset=".26238" stop-color="#636363"/><stop offset=".704952" stop-color="#4b4b4b"/><stop offset="1" stop-color="#3f3f3f"/></radialGradient><radialGradient id="b" cx="40" cy="43.5" gradientTransform="matrix(1 0 0 .75 -31.902462 9.875001)" gradientUnits="userSpaceOnUse" r="2" xlink:href="#c"/><linearGradient id="c"><stop offset="0"/><stop offset="1" stop-opacity="0"/></linearGradient><radialGradient id="d" cx="9" cy="43.5" gradientTransform="matrix(1 0 0 .75 -4 9.875)" gradientUnits="userSpaceOnUse" r="2" xlink:href="#c"/><linearGradient id="e" gradientUnits="userSpaceOnUse" x1="16" x2="16" y1="44" y2="41"><stop offset="0" stop-opacity="0"/><stop offset=".5"/><stop offset="1" stop-opacity="0"/></linearGradient><g transform="matrix(.80709274 0 0 1.3158295 6.443748 -29.44901)"><path d="m8.097537 41v3h.5c.831 0 1.500001-.669 1.500001-1.5s-.669001-1.5-1.500001-1.5z" fill="url(#b)" opacity=".2"/><path d="m4.40625 41c-.7790625 0-1.40625.627187-1.40625 1.40625v.1875c0 .779063.6271875 1.40625 1.40625 1.40625h.59375v-3z" fill="url(#d)" opacity=".2"/><path d="m5 41h3.0975372v3h-3.0975372z" fill="url(#e)" opacity=".2"/></g><path d="m9.7072394 28.279186h-2.027288l2.8186896-14.071764h-4.5315854l.3469156-1.777942h11.0796168l-.346915 1.777942h-4.520744z" fill="url(#a)" stroke="#000" stroke-opacity=".6" stroke-width=".754888" transform="matrix(1.32470039 0 0 1.3247003 .527073 -10.963391)"/><path d="m8.890625 5.5019531-.4589844 2.3554688h.2929688l.1660156-.8554688h14.384766l.292968-1.5zm5.244141 3.8554688-3.433594 17.1406251h.300781l3.433594-17.1406251z" fill="#fff" opacity=".2" transform="translate(-.000001)"/></svg>

<?xml version="1.0" encoding="UTF-8" standalone="no"?>
<svg
   xmlns:dc="http://purl.org/dc/elements/1.1/"
   xmlns:cc="http://creativecommons.org/ns#"
   xmlns:rdf="http://www.w3.org/1999/02/22-rdf-syntax-ns#"
   xmlns:svg="http://www.w3.org/2000/svg"
   xmlns="http://www.w3.org/2000/svg"
   xmlns:xlink="http://www.w3.org/1999/xlink"
   xmlns:sodipodi="http://sodipodi.sourceforge.net/DTD/sodipodi-0.dtd"
   xmlns:inkscape="http://www.inkscape.org/namespaces/inkscape"
   height="32"
   width="32"
   version="1.1"
   id="svg41"
   sodipodi:docname="italic.svg"
   inkscape:version="0.92.4 (unknown)"
   inkscape:export-filename="/home/rizmut/Dokumen/Rizmut/Github/libreoffice-style-elementary/images_elementary/cmd/32/tr/italic.png"
   inkscape:export-xdpi="96"
   inkscape:export-ydpi="96">
  <metadata
     id="metadata47">
    <rdf:RDF>
      <cc:Work
         rdf:about="">
        <dc:format>image/svg+xml</dc:format>
        <dc:type
           rdf:resource="http://purl.org/dc/dcmitype/StillImage" />
        <dc:title />
      </cc:Work>
    </rdf:RDF>
  </metadata>
  <defs
     id="defs45">
    <radialGradient
       inkscape:collect="always"
       xlink:href="#e"
       id="radialGradient903"
       cx="9.8537178"
       cy="15.261165"
       fx="9.8537178"
       fy="15.261165"
       r="4.4556975"
       gradientTransform="matrix(-1.863628,-4.4565651e-8,6.077128e-8,-2.5413115,30.043985,50.079055)"
       gradientUnits="userSpaceOnUse" />
  </defs>
  <sodipodi:namedview
     pagecolor="#ffffff"
     bordercolor="#666666"
     borderopacity="1"
     objecttolerance="10"
     gridtolerance="10"
     guidetolerance="10"
     inkscape:pageopacity="0"
     inkscape:pageshadow="2"
     inkscape:window-width="1366"
     inkscape:window-height="714"
     id="namedview43"
     showgrid="true"
     inkscape:zoom="10.429825"
     inkscape:cx="-5.8262415"
     inkscape:cy="11.518738"
     inkscape:window-x="0"
     inkscape:window-y="28"
     inkscape:window-maximized="1"
     inkscape:current-layer="g39">
    <inkscape:grid
       type="xygrid"
       id="grid854" />
  </sodipodi:namedview>
  <radialGradient
     id="a"
     cx="40"
     cy="43.5"
     gradientTransform="matrix(1,0,0,0.75,-31.902462,9.8750008)"
     gradientUnits="userSpaceOnUse"
     r="2"
     xlink:href="#b" />
  <linearGradient
     id="b">
    <stop
       offset="0"
       id="stop3" />
    <stop
       offset="1"
       stop-opacity="0"
       id="stop5" />
  </linearGradient>
  <radialGradient
     id="c"
     cx="9"
     cy="43.5"
     gradientTransform="matrix(1,0,0,0.75,-4,9.875)"
     gradientUnits="userSpaceOnUse"
     r="2"
     xlink:href="#b" />
  <linearGradient
     id="d"
     gradientUnits="userSpaceOnUse"
     x1="16"
     x2="16"
     y1="44"
     y2="41">
    <stop
       offset="0"
       stop-opacity="0"
       id="stop9" />
    <stop
       offset=".5"
       id="stop11" />
    <stop
       offset="1"
       stop-opacity="0"
       id="stop13" />
  </linearGradient>
  <radialGradient
     id="e"
     cx="12.279661"
     cy="7.140932"
     gradientTransform="matrix(-3.1675784,0.07135103,-0.0749702,-3.3513607,41.983743,34.643483)"
     gradientUnits="userSpaceOnUse"
     r="5.015671">
    <stop
       offset="0"
       stop-color="#737373"
       id="stop16" />
    <stop
       offset=".26238"
       stop-color="#636363"
       id="stop18" />
    <stop
       offset=".704952"
       stop-color="#4b4b4b"
       id="stop20" />
    <stop
       offset="1"
       stop-color="#3f3f3f"
       id="stop22" />
  </radialGradient>
  <g
     transform="matrix(1.333631 0 0 1.3158295 .527073 -10.963391)"
     id="g39">
    <g
       transform="matrix(0.60518445,0,0,1,4.4365155,-14.048643)"
       id="g31">
      <path
         d="m 8.097537,41 v 3 h 0.5 c 0.831,0 1.500001,-0.669 1.500001,-1.5 0,-0.831 -0.669001,-1.5 -1.500001,-1.5 z"
         id="path25"
         style="opacity:0.2;fill:url(#a)"
         inkscape:connector-curvature="0" />
      <path
         d="M 4.40625,41 C 3.6271875,41 3,41.627187 3,42.40625 v 0.1875 C 3,43.372813 3.6271875,44 4.40625,44 H 5 v -3 z"
         id="path27"
         style="opacity:0.2;fill:url(#c)"
         inkscape:connector-curvature="0" />
      <path
         d="m 5,41 h 3.0975372 v 3 H 5 Z"
         id="path29"
         style="opacity:0.2;fill:url(#d)"
         inkscape:connector-curvature="0"
         sodipodi:nodetypes="ccccc" />
    </g>
    <g
       aria-label="T"
       transform="scale(0.99330354,1.0067416)"
       style="font-style:normal;font-variant:normal;font-weight:normal;font-stretch:normal;font-size:30.19550896px;line-height:1.25;font-family:'Droid Sans';-inkscape-font-specification:'Droid Sans';letter-spacing:0px;word-spacing:0px;fill:url(#radialGradient903);fill-opacity:1;stroke:#000000;stroke-width:0.7548877;stroke-opacity:0.6"
       id="text858">
      <path
         d="M 9.7072394,28.279186 H 7.6799514 L 10.498641,14.207422 H 5.9670556 L 6.3139712,12.42948 H 17.393588 l -0.346915,1.777942 h -4.520744 z"
         style="font-style:italic;font-size:22.20259857px;fill:url(#radialGradient903);fill-opacity:1;stroke:#000000;stroke-width:0.7548877;stroke-opacity:0.6"
         id="path835" />
    </g>
    <path
       style="font-style:normal;font-variant:normal;font-weight:normal;font-stretch:normal;font-size:30.19550896px;line-height:1.25;font-family:'Droid Sans';-inkscape-font-specification:'Droid Sans';letter-spacing:0px;word-spacing:0px;opacity:0.2;fill:#ffffff;fill-opacity:1;stroke:none;stroke-width:1;stroke-opacity:0.6"
       d="M 8.890625 5.5019531 L 8.4316406 7.8574219 L 8.7246094 7.8574219 L 8.890625 7.0019531 L 23.275391 7.0019531 L 23.568359 5.5019531 L 8.890625 5.5019531 z M 14.134766 9.3574219 L 10.701172 26.498047 L 11.001953 26.498047 L 14.435547 9.3574219 L 14.134766 9.3574219 z "
       transform="matrix(0.7498326,0,0,0.75997688,-0.39521652,8.3319237)"
       id="text1033" />
  </g>
</svg>
